Origami/24x24/apps/zegrapher.svg

<svg width="24" height="24" version="1" xmlns="http://www.w3.org/2000/svg">
 <rect transform="matrix(0,-1,-1,0,0,0)" x="-22" y="-22" width="20" height="20" rx="1" ry="1" style="fill:#49cbc6"/>
 <path d="m4 7v1h7l-6.9609375 9h8.9609375v-1h-7l6.960938-9zm13.427734 3c-1.073643 0-1.914137 0.310112-2.521484 0.927734-0.60428 0.614577-0.90625 1.47155-0.90625 2.574219 0 1.099624 0.30197 1.95855 0.90625 2.576172 0.607382 0.614609 1.447875 0.921875 2.521484 0.921875 0.490799 0 0.952241-0.06292 1.384766-0.189453 0.432524-0.129563 0.828619-0.318306 1.1875-0.568359v-3.242188h-2v1h1v1.65625 2e-3c-0.205528 0.117449-0.357566 0.202526-0.615234 0.259766-0.257657 0.054181-0.550686 0.081984-0.878907 0.081984-0.840478 0-1.471208-0.230458-1.894531-0.691406-0.420257-0.460948-0.632812-0.896793-0.632812-1.806641 0-0.91286 0.212555-1.347645 0.632812-1.808594 0.423323-0.460948 1.054053-0.693359 1.894531-0.693359h2.494141v-1c-0.88736 0.02258-2 0-2.572266 0z" style="fill:#303030"/>
 <path d="m3 2c-0.554 0-1 0.446-1 1v0.5c0-0.554 0.446-1 1-1h18c0.554 0 1 0.446 1 1v-0.5c0-0.554-0.446-1-1-1h-18z" style="fill:#ffffff;opacity:.2"/>
 <path d="m3 22.5c-0.554 0-1-0.446-1-1v-0.5c0 0.554 0.446 1 1 1h18c0.554 0 1-0.446 1-1v0.5c0 0.554-0.446 1-1 1h-18z" style="opacity:.2"/>
</svg>

<svg xmlns="http://www.w3.org/2000/svg" width="24" height="24" version="1">
 <rect style="fill:#49cbc6" width="20" height="20" x="-22" y="-22" rx="1" ry="1" transform="matrix(0,-1,-1,0,0,0)"/>
 <path style="fill:#303030" d="M 4,7 4,8 11,8 4.0390625,17 13,17 13,16 6,16 12.960938,7 Z m 13.427734,3 C 16.354091,10 15.513597,10.310112 14.90625,10.927734 14.30197,11.542311 14,12.399284 14,13.501953 c 0,1.099624 0.30197,1.95855 0.90625,2.576172 C 15.513632,16.692734 16.354125,17 17.427734,17 17.918533,17 18.379975,16.93708 18.8125,16.810547 19.245024,16.680984 19.641119,16.492241 20,16.242188 L 20,13 l -2,0 0,1 1,0 0,1.65625 0,0.002 c -0.205528,0.117449 -0.357566,0.202526 -0.615234,0.259766 C 18.127109,15.972197 17.83408,16 17.505859,16 c -0.840478,0 -1.471208,-0.230458 -1.894531,-0.691406 -0.420257,-0.460948 -0.632812,-0.896793 -0.632812,-1.806641 0,-0.91286 0.212555,-1.347645 0.632812,-1.808594 C 16.034651,11.232411 16.665381,11 17.505859,11 18,11 19,11 20,11 l 0,-1 c -0.88736,0.02258 -2,0 -2.572266,0 z"/>
 <path style="opacity:0.2;fill:#ffffff" d="M 3,2 C 2.446,2 2,2.446 2,3 l 0,0.5 c 0,-0.554 0.446,-1 1,-1 l 18,0 c 0.554,0 1,0.446 1,1 L 22,3 C 22,2.446 21.554,2 21,2 L 3,2 Z"/>
 <path style="opacity:0.2" d="m 3,22.5 c -0.554,0 -1,-0.446 -1,-1 L 2,21 c 0,0.554 0.446,1 1,1 l 18,0 c 0.554,0 1,-0.446 1,-1 l 0,0.5 c 0,0.554 -0.446,1 -1,1 l -18,0 z"/>
</svg>
